dist/svgs/geomicons-open/icons/repost.svg

<svg xmlns="http://www.w3.org/2000/svg" viewBox="0 0 32 32"><path d="M7 7l7 7H9v6h7v4H5V14H0zm9 1h11v10h5l-7 7-7-7h5v-6h-7z"/></svg>

<svg id="repost" xmlns="http://www.w3.org/2000/svg" viewBox="0 0 32 32" width="32" height="32" fill="currentcolor">
  <path d="M7 7 L14 14 L9 14 L9 20 L16 20 L16 24 L5 24 L5 14 L0 14 z M16 8 L27 8 L27 18 L32 18 L25 25 L18 18 L23 18 L23 12 L16 12z"></path>
</svg>
